X:1
T:LES NÈEGRES BLANCS
T:LES NÈGRES BLANCS
T:CAKE-WALK. MARCH. 
T:LOUIS BALLERON.           
T: Hommage à M. EMILE LAFITTE,Chef d'orchestre du Palais de Glace. 
T:F. 553 G.
T:F. 553 G.
T:F. 553 G.
T:F. 553 G.
C:LOUIS BALLERON.
Z:F. 553 G.
%%score { ( 1 4 ) | ( 2 3 ) }
L:1/8
Q:1/4=90
M:2/4
K:C
V:1 treble nm="Piano" snm="Pno."
V:4 treble 
V:2 bass 
V:3 bass 
V:1
S!f! e/ge/ g2 |!mf! E/GE/ G2 |!f! e/ge/ .g/.e/.d/.c/ | %3
"^de l'Opèra Comique et de la Garde Républicaine." .d z!sfz! [Bfg] z | %4
!mf!"^con brio" [cc']/[cc'][Aa]/ [Gg]/[Gg][Ee]/ | [Dd]/[Dd][Ee]/ [Cc]2 | [FA]/[FA][FA]/ c[FA] | %7
!ped! [EG]4!ped-up! | [Bd]/[Bd]g/ [Bd]/[Bd]g/ | [ce]/[ce]g/ [ce]/[ce]c'/ | %10
 [db]/[db][Bg]/ [ca]/[ca][c^f]/ |!>(! [Bg]4!>)! | [cc']/[cc'][Aa]/ [Gg]/[Gg][Ee]/ | %13
 [Dd]/[Dd][Ee]/ [Cc]2 | [FA]/[FA][FA]/ c[FA] |!ped! [EG]4!ped-up! | [Bd]/[Bd]g/ [Bd]/[Bd]g/ | %17
 [ce]/[ce]g/ [ce]/[ce]c'/ | [Fd]/[Fd]a/ [FB]/[FB]g/ | [Ec].G .C z |:[K:G]!ff! !>![Bd]2 !>![Bd]2 | %21
 [ce]/[Bd]/[Ac]/[Bd]/ [ce][eg] | [cf]/[cf]e/ c[cf] | [Be]/[Be]B/ [Bd]2 | !>![B^db]2 !>![Bf]2 | %25
 [Ba]/[Bg][Bf]/ [Be]2 | !>![Aa]2 !>![^ce]2 | [=cg]/fa/ [Fce][Fcd] | !>![Bd]2 !>![Bd]2 | %29
 [ce]/[Bd]/[Ac]/[Bd]/ [ce][eg] | [df]/[df]c'/ [^dfb]f | [Ba]/[Bg][Bf]/ [Be]2 | %32
 !>![cec']2 !>![ce]2 | !>![Bd]2 !>![Bdb]2 | [ca]/[cg]/[cf]/[cg]/ [ca][Fcd] |1 [Bdg]d/d/ dd :|2 %36
 [GBdg]2!>(! z2!>)! ||[K:C]!mf!"^con brio" [cc']/[cc'][Aa]/ [Gg]/[Gg][Ee]/ | [Dd]/[Dd][Ee]/ [Cc]2 | %39
 [FA]/[FA][FA]/ c[FA] | [EG]4 | [Bd]/[Bd]g/ [Bd]/[Bd]g/ | [ce]/[ce]g/ [ce]/[ce]c'/ | %43
 [db]/[db][Bg]/ [ca]/[ca][c^f]/ |!>(! [Bg]4!>)! | [cc']/[cc'][Aa]/ [Gg]/[Gg][Ee]/ | %46
 [Dd]/[Dd][Ee]/ [Cc]2 | [FA]/[FA][FA]/ c[FA] | [EG]4 | [Bd]/[Bd]g/ [Bd]/[Bd]g/ | %50
 [ce]/[ce]g/ [ce]/[ce]c'/ | [Fd]/[Fd]a/ [FB]/[FB]g/ | [Ec].G .C"^Fin." z!fine! |: %53
[K:F]!p!"^Trio."{/=B,} C (C2 [FA]) | [EG]4 |{/^D} [CE] ([CE]2 [Bd]) | [Ac]4 | ([df]2 [Bd]2 | %58
 [Ac]2) (FA) | (A2 G^F | [EG]4) |{/=B,} C (C2 [FA]) | [EG]4 |{/^D} [CE] ([CE]2 [Bd]) | [Ac]4 | %65
 (e2 E2) | (c2 =BA) | c2 =B2 |1 z c/c/ cc :|2!<(! A3 c!<)! ||!mf! [Cc][Dd][Dd][Ee] | %71
 [Ee][Aa][Aa][Ee] | [Gg]/[Ff][Ee]/ [Dd][Ff] | A4 | [Bf]/[Be][Bd]/ [B^c][Bd] | e4 | %76
 [Ae]/[Ad][Ac]/ [A=B][Ac] | [Ad]3 c | [Cc]"_cresc."[Dd][Dd][Ee] | [Ee][Aa][Aa][Ee] | %80
 [Gg]/[Ff][Ee]/ [Dd][Ff] | [FA]3 _A |!f! G{/=B}cc{/^f}g |!<(! B{/^c}^dd{/^g}a | G{/^f}gG{/f}g!<)! | %85
 c!ff!{/=b}[cc']{/b}[cc']{/b}[cc'] || c (c2 [Afa]) | [Geg]4 |{/^d} [ce] ([ce]2 [=dbd']) | [cac']4 | %90
 ([fd'f']2 [dbd']2 | [cac']2) ([Ff][Aa]) | [Aa]2 ([Gg][^F^f]) | [Geg]4 | c (c2 [Afa]) | [Geg]4 | %96
{/^d} [ce] ([ce]2 [=dbd']) | [cac']4 | ([fd'f']2 [dbd']2 | [cac']2 [Aa][Ff]) | ([Gg]2 [Aa]2 | %101
 [Ff]4)!D.S.! |] %102
V:2
 E/GE/ G2 | E,/G,E,/ G,2 | E/GE/ .G/.E/.D/.C/ | .D z [G,,G,] z | C,[G,CE] E,[G,C] | %5
 G,,[F,G,B,] C,[E,G,C] | F,,[C,F,A,] A,,[C,F,A,] | (C,/G,/C/E/) CG, | G,,[D,G,B,] B,,[D,G,B,] | %9
 C,[E,G,C] A,,[E,A,C] | D,[G,B,D] D,,[^F,A,D] | [G,B,D][=F,,=F,][E,,E,][D,,D,] | C,[G,CE] E,[G,C] | %13
 G,,[F,G,B,] C,[E,G,C] | F,,[C,F,A,] A,,[C,F,A,] | (C,/G,/C/E/) CG, | %16
"_Pairs,Fatout et Girard,Editeurs, 84 Bould Sébastopol.\nCopyright 1903 by Fatout & Girard, Paris.\n" G,,[D,G,B,] B,,[D,G,B,] | %17
 C,[E,G,C] A,,[E,A,C] | F,[A,D] G,,[D,G,B,] | [C,E,G,C].[G,,G,] .[C,,C,] z |: %20
[K:G] G,,"^poco pesante"[D,G,B,] B,,[D,G,B,] | C,[E,A,C] A,,[E,A,C] | D,[F,A,D] D,,[F,A,D] | %23
 G,,[G,B,D] B,,[G,B,D] | ^D,[F,A,B,] B,,[A,B,^D] | [E,,E,] [G,B,E]2 [G,B,E] | %26
 ^C,[G,A,E] A,,[G,A,^C] | [D,F,A,D][F,,F,][A,,A,][D,D] | G,,[D,G,B,] B,,[D,G,B,] | %29
 C,[E,A,C] A,,[E,A,C] | D,[F,A,D] B,,[F,A,B,^D] | [E,,E,] [G,B,E]2 [G,B,E] | %32
 A,,[E,A,C] A,,[E,A,C] | D,[G,B,D] D,[G,B,D] | [D,,D,][F,A,D] [D,,D,][F,A,D] |1 [G,B,D]2 z2 :|2 %36
 [G,B,D][=F,,=F,][E,,E,][D,,D,] ||[K:C] C,[G,CE] E,[G,C] | G,,[F,G,B,] C,[E,G,C] | %39
 F,,[C,F,A,] A,,[C,F,A,] | (C,/G,/C/E/) CG, | G,,[D,G,B,] B,,[D,G,B,] | C,[E,G,C] A,,[E,A,C] | %43
 D,[G,B,D] D,,[^F,A,D] | [G,B,D][=F,,=F,][E,,E,][D,,D,] | C,[G,CE] E,[G,C] | %46
 G,,[F,G,B,] C,[E,G,C] | F,,[C,F,A,] A,,[C,F,A,] | (C,/G,/C/E/) CG, | G,,[D,G,B,] B,,[D,G,B,] | %50
 C,[E,G,C] A,,[E,A,C] | F,[A,D] G,,[D,G,B,] | [C,E,G,C].[G,,G,] .[C,,C,] z |: %53
[K:F] F,, [C,F,A,]2 [C,F,A,] | F,, [C,E,B,]2 [C,E,B,] | F,, [C,E,B,]2 [C,E,B,] | %56
 F,, [C,F,A,]2 [C,F,A,] | B,,[F,B,D] D,[F,B,D] | F,[A,C] A,,[F,C] | =B,,[F,G,D] G,,[F,G,=B,] | %60
 [C,E,C][_B,,_B,][G,,G,][E,,E,] | F,, [C,F,A,]2 [C,F,A,] | F,, [C,E,B,]2 [C,E,B,] | %63
 F,, [C,E,B,]2 [C,E,B,] | F,, [C,F,A,]2 [C,F,A,] | E,, !>![E,^G,=B,] E,!>![G,D] | %66
 A,,!>![E,A,C] D,!>![F,A,C] | E,!>![A,C] E,,!>![^G,=B,] |1 [A,CE]2 z2 :|2 [A,CE](E,C,D, || %70
 E,)[G,B,C] C,[G,B,C] | G,[B,C] C,[G,B,C] | F,[A,C] C,[A,C] | %73
 F,, [C,F,A,]/[C,F,A,]/ [C,F,A,][C,F,A,] | G,[B,CE] C,[B,CE] | G,[B,CE]/[B,CE]/ [B,CE][B,CE] | %76
 F,[A,CF] C,[A,CF] | F,[C,C][A,,A,][F,,F,] | E,[G,B,C] C,[G,B,C] | G,[B,C] C,[G,B,C] | %80
 F,[A,C] C,[A,C] | F,[A,D]/[A,D]/ [A,D][_A,D] | E,[G,C] C,[E,G,C] | F,[A,D] D,[F,A,D] | %84
 G,[CE] G,,[G,=B,F] | [CE][K:treble] ([G_B]"^stridente"[FA][CG]) || %86
[K:bass] F,, [C,F,A,]2 [C,F,A,] | F,, [C,E,B,]2 [C,E,B,] | F,, [C,E,B,]2 [C,E,B,] | %89
 F,, [C,F,A,]2 [C,F,A,] | B,,[F,B,D] D,[F,B,D] | F,[A,CF] A,,[A,CF] | =B,,[F,G,D] G,,[D,G,=B,] | %93
 [C,C][_B,,_B,][G,,G,][E,,E,] | F,, [C,F,A,]2 [C,F,A,] | F,, [C,E,B,]2 [C,E,B,] | %96
 F,, [C,E,B,]2 [C,E,B,] | F,, [C,F,A,]2 [C,F,A,] | B,,[F,B,D] D,[F,B,D] | F,[A,CF] [F,,F,][A,CF] | %100
 D,[F,G,=B,] C,[G,_B,CE] | [F,A,C][C,C] [F,,F,]"_D. C.\nal Segno\n" z |] %102
V:3
 x4 | x4 | x4 | x4 | x4 | x4 | x4 | x4 | x4 | x4 | x4 | x4 | x4 | x4 | x4 | x4 | x4 | x4 | x4 | %19
 x4 |:[K:G] x4 | x4 | x4 | x4 | x4 | x4 | x4 | x4 | x4 | x4 | x4 | x4 | x4 | x4 | x4 |1 %35
 x D/D/ DD :|2 x4 ||[K:C] x4 | x4 | x4 | x4 | x4 | x4 | x4 | x4 | x4 | x4 | x4 | x4 | x4 | x4 | %51
 x4 | x4 |:[K:F] x4 | x4 | x4 | x4 | x4 | x4 | x4 | x4 | x4 | x4 | x4 | x4 | x4 | x4 | x4 |1 %68
 x C/C/ CC :|2 x4 || x4 | x4 | x4 | x4 | x4 | x4 | x4 | x4 | x4 | x4 | x4 | x4 | x4 | x4 | x4 | %85
 x[K:treble] x3 ||[K:bass] x4 | x4 | x4 | x4 | x4 | x4 | x4 | x4 | x4 | x4 | x4 | x4 | x4 | x4 | %100
 x4 | x4 |] %102
V:4
 x4 | x4 | x4 | x4 | x4 | x4 | x4 | x4 | x4 | x4 | x4 | x4 | x4 | x4 | x4 | x4 | x4 | x4 | x4 | %19
 x4 |:[K:G] x4 | x4 | x4 | x4 | x4 | x4 | x4 | x4 | x4 | x4 | x4 | x4 | x4 | x4 | x4 |1 x4 :|2 %36
 x4 ||[K:C] x4 | x4 | x4 | x4 | x4 | x4 | x4 | x4 | x4 | x4 | x4 | x4 | x4 | x4 | x4 | x4 |: %53
[K:F] x4 | x4 | x4 | x4 | x4 | x4 | x4 | x4 | x4 | x4 | x4 | x4 | x4 | x4 | x4 |1 A4 :|2 x4 || x4 | %71
 x4 | x4 | z [CF]/[CF]/ [CF][CF] | x4 | z [GB]/[GB]/ [GB][GB] | x4 | x4 | x4 | x4 | x4 | x4 | x4 | %83
 x4 | x4 | x4 || x4 | x4 | x4 | x4 | x4 | x4 | x4 | x4 | x4 | x4 | x4 | x4 | x4 | x4 | x4 | x4 |] %102

